!!!OTL: Graserin und Reiter
!!!OTL-incipit:Die Holvinger Maedchen,
!!!ARE: Europa, Mitteleuropa, Deutschland / France, Lothringen
!!!YOR: 7, S. 148
!!    1918 aufgezeichnet
!!!SCT: Q0149G
!!!TXL: @@DE
!!!YEM: Copyright 1995, estate of Helmut Schaffrath.
**kern	**text
*ICvox	*
*M2/4	*
*k[f#]	*
*G:	*
!LO:TX:a:t=183	!
{8d	Die
=1	=1
4g	Hol-
8f#L	-vin-
8gJ	-ger
=2	=2
4a	Mäd-
8gL}	-chen,
{8aJ	Die
=3	=3
8bL	wol-
8gJ	-len
8ddL	gra-
8bJ	-sen
=4	=4
[4a	gehn;
8a]	.
8r}	.
=5	=5
{4a	Wohl
8ddL	in
8ccJ	die
=6	=6
8bL	lan-
8aJ	-ge
8gL	Wie-
8eJ	.
=7	=7
[4d	-se,
8d]	.
8r}	.
=8	=8
{4g	Fi-
4a	-fa-
=9	=9
4b	-fa-
8bL	-la-
8bJ	-da-
=10	=10
4a}	-ra
{4b	Jns
=11	=11
8ddL	Gras
8ccJ	und
8bL	grünen
8aJ	.
=12	=12
[4g	Klee.
8g]}	.
==	==
!!!AGN: Ballade, Verfuehrung, Verlassen des Elternhauses
!! Vierte Zeile = Refrain auf sinnfreie Silben.
!!!ONB: ESAC (Essen Associative Code) Database: BALLADE
!!!AMT: simple duple
!!!AIN: vox
!!!EED: Helmut Schaffrath
!!!EEV: 1.0
!!!source: Deutsche Volkslieder mit ihren Melodien Balladen. Herausgegeben vom Deutschen Volksliedarchiv. Siebenterer Band. Freiburg/Breisgau 1982.
!!!page: 148
!!!ENC: Anna Maria Matuszewska
!!!EEV: 2025/03/07
*-	*-
